src/assets/thunder.svg

<svg xmlns="http://www.w3.org/2000/svg" width="28" height="28" viewBox="0 0 28 28" fill="none">
<path d="M17.51 19.8331H20.9997C23.577 19.8331 25.6663 17.7438 25.6663 15.1665C25.6663 12.9776 24.1594 11.1407 22.1264 10.6367C22.1528 10.4003 22.1663 10.1599 22.1663 9.91645C22.1663 6.37263 19.2935 3.49979 15.7497 3.49979C12.8103 3.49979 10.3326 5.47616 9.57284 8.17251C9.4934 8.16849 9.41344 8.16645 9.33301 8.16645C6.75568 8.16645 4.66634 10.2558 4.66634 12.8331C4.66634 12.8994 4.66772 12.9653 4.67045 13.0308C3.30891 13.5101 2.33301 14.8077 2.33301 16.3331C2.33301 18.2661 3.90001 19.8331 5.83301 19.8331H9.15596L14.1534 11.0876C14.747 10.0489 16.333 10.4701 16.333 11.6665V16.3331H17.4997C18.3955 16.3331 18.9571 17.3008 18.5126 18.0786L17.51 19.8331Z" fill="white" fill-opacity="0.6"/>
<path d="M10.4997 19.8331L15.1663 11.6665V17.4998H17.4997L12.833 25.6665V19.8331H10.4997Z" fill="white" fill-opacity="0.6"/>
</svg>

<svg xmlns="http://www.w3.org/2000/svg" width="28" height="28" fill="none"><path fill="#fff" fill-opacity=".6" d="M17.51 19.833H21a4.667 4.667 0 0 0 1.126-9.196q.04-.356.04-.72A6.417 6.417 0 0 0 9.573 8.172 4.667 4.667 0 0 0 4.67 13.03a3.502 3.502 0 0 0 1.162 6.802h3.323l4.997-8.745c.594-1.04 2.18-.618 2.18.579v4.666H17.5c.895 0 1.457.968 1.013 1.746z"/><path fill="#fff" fill-opacity=".6" d="m10.5 19.833 4.666-8.166V17.5H17.5l-4.667 8.166v-5.833z"/></svg>
